X:381
T:Hippodrome Reel
C:G.L. Tracy
B:One Thousand Fiddle Tunes (Cole's)
L:1/8
M:4/4
Q:420
K:D
AG|:"D"FAdB AFDF|"A"GABc "D"d2 (cd)|"G"Bdcd "D"Adcd|"E"cgec "A"ABAG|
"D"FAdB AFDF|"A"GABc "D"d2 (cd)|"G"Bdcd "D"Adcd|1 "A"edce "D"d2 AG:|2 "A"edce "D"d2 d=c|
K:Bb
|:"Bb"BFBd BFBd|"F"cAFA "Bb"BABd|"Eb"edce "Bb"dcBd|"C"cdcA "F"F^FGA|
"Bb"BFBd BFBd|"F"cAFA "Bb"BABc|"D"dA^FA "D"=B^cd=e|1"A"^fd=e^c "D"d2 d=c:|2 "A"^fd=e^c "D"d4|
